assets/fc/fc-list.svg

<svg xmlns="http://www.w3.org/2000/svg" width="100%" height="100%" viewBox="0 0 48 48"><g fill="#2196F3"><path d="M6 22h4v4H6zM6 14h4v4H6zM6 30h4v4H6zM6 6h4v4H6zM6 38h4v4H6z"/></g><g fill="#2196F3"><path d="M14 22h28v4H14zM14 14h28v4H14zM14 30h28v4H14zM14 6h28v4H14zM14 38h28v4H14z"/></g></svg>

<svg xmlns="http://www.w3.org/2000/svg" width="100%" height="100%" viewBox="0 0 48 48"><g fill="#2196F3"><path d="M6 22H10V26H6zM6 14H10V18H6zM6 30H10V34H6zM6 6H10V10H6zM6 38H10V42H6z"/></g><g fill="#2196F3"><path d="M14 22H42V26H14zM14 14H42V18H14zM14 30H42V34H14zM14 6H42V10H14zM14 38H42V42H14z"/></g></svg>
